img/service-delivery__03.svg

<svg width="60" height="60" viewBox="0 0 60 60" fill="none" xmlns="http://www.w3.org/2000/svg">
<path d="M20.0035 46.2355C17.5859 46.5107 15.8431 48.7033 16.1185 51.1234C16.2519 52.2939 16.8337 53.3428 17.7566 54.077C18.5456 54.7046 19.5027 55.0374 20.4951 55.0374C20.6636 55.0374 20.833 55.0278 21.0028 55.0085C23.4204 54.7332 25.1633 52.5407 24.8879 50.1206C24.6122 47.7031 22.4212 45.9609 20.0035 46.2355ZM20.7373 52.6798C20.1889 52.7424 19.6485 52.587 19.2155 52.2427C18.7825 51.8983 18.5095 51.4064 18.4471 50.8581C18.3178 49.7222 19.1349 48.6931 20.2685 48.5642C20.3476 48.5552 20.4262 48.5507 20.504 48.5507C21.5414 48.5507 22.4389 49.3316 22.559 50.3858C22.6884 51.5216 21.8712 52.5508 20.7373 52.6798Z" fill="#F04E23"/>
<path d="M39.3599 40.6992L32.2814 41.5064C31.6384 41.5796 31.1765 42.1604 31.2498 42.8034C31.318 43.4014 31.8249 43.8426 32.4127 43.8426C32.457 43.8426 32.5017 43.8401 32.5469 43.835L39.6253 43.0278C40.2683 42.9546 40.7303 42.3738 40.6569 41.7308C40.5836 41.0878 40.0029 40.6251 39.3599 40.6992Z" fill="#F04E23"/>
<path d="M42.1572 50.6562C41.51 50.6562 40.9854 51.1809 40.9854 51.8281C40.9854 52.4754 41.51 53 42.1572 53H42.1639C42.8111 53 43.3325 52.4754 43.3325 51.8281C43.3325 51.1809 42.8045 50.6562 42.1572 50.6562Z" fill="#F04E23"/>
<path d="M59.558 47.2241C59.3213 45.1557 57.4461 43.6645 55.3779 43.9011L54.8613 43.96L52.7454 25.3875C52.7103 25.0787 52.5538 24.7965 52.3107 24.6031C52.0674 24.4096 51.7572 24.3211 51.4484 24.3559L44.0391 25.2006L41.9366 6.76214C41.9014 6.45336 41.745 6.17118 41.5017 5.9777C41.2584 5.78435 40.9487 5.69564 40.6395 5.73056L22.2018 7.83345L21.8871 5.07186C21.7151 3.55911 20.9604 2.20104 19.7618 1.24797C18.5636 0.295252 17.0703 -0.134937 15.5579 0.0370916L3.76171 1.3791C1.69268 1.61605 0.201964 3.49161 0.438797 5.5597C0.674691 7.62545 2.54861 9.11816 4.61928 8.88637L14.589 7.74709L16.3359 23.0679L11.454 29.4591C11.2702 29.6998 11.1866 30.0024 11.2209 30.3033L12.9124 45.1304C11.5874 46.9602 10.9131 49.2694 11.1877 51.6852C11.4704 54.1729 12.7056 56.4015 14.6657 57.9604C16.3414 59.2932 18.375 59.9999 20.4853 59.9999C20.8429 59.9999 21.2028 59.9797 21.5635 59.9387C24.9482 59.5515 27.709 57.3983 29.0316 54.5063L37.0653 53.5908C37.7083 53.5176 38.1702 52.9368 38.0969 52.2938C38.0236 51.6508 37.4438 51.1889 36.7999 51.2622L29.7639 52.064C29.8903 51.2534 29.9136 50.4139 29.816 49.5603C29.8014 49.433 29.7829 49.3066 29.7635 49.1807L53.9445 46.4235C53.9506 46.4229 53.9566 46.4232 53.9625 46.4225C53.9693 46.4216 53.9758 46.42 53.9826 46.4192L55.6437 46.2298C56.4274 46.1397 57.1398 46.7058 57.2296 47.4905C57.3192 48.2752 56.7535 48.9867 55.9692 49.0765L47.2532 50.0697C46.6102 50.143 46.1482 50.7238 46.2216 51.3668C46.2898 51.9648 46.7966 52.4061 47.3844 52.4061C47.4287 52.4061 47.4735 52.4036 47.5186 52.3985L53.5826 51.7074L54.0224 54.8882C54.1042 55.4801 54.6109 55.9086 55.1919 55.9086C55.2458 55.9086 55.3004 55.905 55.3553 55.8974C56.0021 55.808 56.4539 55.2113 56.3645 54.5644L55.9325 51.4396L56.2352 51.4052C58.3037 51.1681 59.7944 49.2928 59.558 47.2241ZM33.1539 8.9432L33.632 13.1387L32.0989 12.4076C31.6946 12.2148 31.2156 12.2693 30.865 12.5482L29.5332 13.6074L29.0548 9.41066L33.1539 8.9432ZM26.7264 9.67632L27.444 15.9731C27.4923 16.3963 27.7663 16.76 28.1598 16.923C28.3044 16.9828 28.4567 17.0121 28.6081 17.0121C28.8689 17.0121 29.1268 16.9252 29.3377 16.7575L31.7509 14.8382L34.5314 16.1641C34.9159 16.3475 35.3696 16.3077 35.7164 16.0602C36.0631 15.8129 36.2484 15.3967 36.2001 14.9736L35.4825 8.67766L39.7408 8.19204L41.7104 25.4658L24.436 27.435L22.4672 10.1621L26.7264 9.67632ZM40.7667 33.3247L38.7125 32.3449C38.3082 32.1521 37.8292 32.2067 37.4786 32.4855L35.6955 33.9034L35.09 28.5794L40.1592 28.0016L40.7667 33.3247ZM4.35596 6.55742C3.56953 6.64531 2.85692 6.07848 2.76728 5.29334C2.67739 4.5089 3.24317 3.79746 4.02737 3.7077L10.1814 3.00751L10.5067 5.85454L4.35596 6.55742ZM15.4875 5.28549L12.8354 5.58853L12.5103 2.74267L15.8228 2.3658C16.7134 2.26456 17.5947 2.51897 18.3032 3.0824C19.0114 3.64571 19.4573 4.4462 19.5585 5.33693L22.2377 28.842C22.2384 28.8498 22.2383 28.8574 22.2391 28.8651C22.24 28.8729 22.2418 28.8802 22.2428 28.888L23.7161 41.8133C22.7744 41.4687 21.7817 41.2771 20.7679 41.2502L16.7849 6.31719C16.7498 6.00829 16.5932 5.7261 16.3499 5.53275C16.1065 5.33904 15.7962 5.25056 15.4875 5.28549ZM16.7189 26.4275L18.435 41.4785C17.1787 41.7621 16.0286 42.2948 15.0301 43.0162L13.603 30.5068L16.7189 26.4275ZM21.2978 57.6099C19.4311 57.8219 17.5943 57.2951 16.1246 56.1261C14.6547 54.9571 13.7285 53.2859 13.5165 51.4204C13.0787 47.5682 15.8555 44.0758 19.7067 43.6353C21.5723 43.4234 23.4094 43.9504 24.8792 45.1192C26.349 46.2883 27.2753 47.9595 27.4874 49.8258C27.9277 53.6772 25.1509 57.1692 21.2978 57.6099ZM29.1094 46.8962C28.5063 45.4974 27.564 44.2602 26.3378 43.285C26.3036 43.2579 26.268 43.2329 26.2336 43.2063L24.7014 29.7638L32.7613 28.8451L33.6056 36.2691C33.6538 36.6924 33.9279 37.0562 34.3213 37.2193C34.4659 37.2792 34.6183 37.3086 34.7697 37.3086C35.0305 37.3086 35.2884 37.2216 35.4993 37.0539L38.3642 34.7757L41.6661 36.3506C42.0507 36.534 42.5044 36.4943 42.8512 36.2469C43.1981 35.9995 43.3832 35.5833 43.335 35.1601L42.4878 27.7364L50.5494 26.8174L52.5327 44.2255L29.1094 46.8962Z" fill="#F04E23"/>
</svg>

<svg width="60" height="60" fill="none" xmlns="http://www.w3.org/2000/svg"><path d="M20.003 46.236a4.42 4.42 0 00-3.884 4.887 4.384 4.384 0 001.638 2.954 4.38 4.38 0 003.246.931 4.42 4.42 0 003.885-4.887 4.42 4.42 0 00-4.885-3.886zm.734 6.444a2.055 2.055 0 01-1.521-.437 2.073 2.073 0 011.289-3.692c1.036 0 1.934.78 2.054 1.835a2.074 2.074 0 01-1.822 2.294zM39.36 40.7l-7.079.806a1.172 1.172 0 10.266 2.329l7.078-.807a1.172 1.172 0 10-.265-2.329zm2.797 9.956a1.172 1.172 0 000 2.344h.007a1.17 1.17 0 001.169-1.172c0-.647-.529-1.172-1.176-1.172z" fill="#F04E23"/><path d="M59.558 47.224a3.78 3.78 0 00-4.18-3.323l-.517.059-2.116-18.573a1.172 1.172 0 00-1.297-1.031l-7.409.845-2.102-18.439a1.172 1.172 0 00-1.297-1.031L22.201 7.833l-.315-2.761a5.676 5.676 0 00-2.125-3.824 5.682 5.682 0 00-4.204-1.21L3.762 1.378A3.78 3.78 0 00.439 5.56a3.787 3.787 0 004.18 3.327l9.97-1.139 1.747 15.32-4.882 6.392c-.184.24-.267.543-.233.844l1.691 14.827a9.344 9.344 0 00-1.724 6.555 9.308 9.308 0 003.478 6.275 9.307 9.307 0 006.898 1.979 9.383 9.383 0 007.468-5.433l8.033-.915a1.172 1.172 0 10-.265-2.329l-7.036.802a9.338 9.338 0 000-2.883l24.18-2.758h.018l.02-.004 1.662-.19a1.435 1.435 0 011.586 1.261 1.435 1.435 0 01-1.26 1.587l-8.717.993a1.172 1.172 0 00.266 2.328l6.064-.69.44 3.18a1.182 1.182 0 102.341-.324l-.431-3.124.302-.035a3.781 3.781 0 003.323-4.18zM33.154 8.944l.478 4.195-1.533-.731a1.172 1.172 0 00-1.234.14l-1.332 1.06-.478-4.197 4.099-.468zm-6.428.732l.718 6.297a1.172 1.172 0 001.894.784l2.413-1.919 2.78 1.326a1.172 1.172 0 001.67-1.19l-.718-6.296 4.258-.486 1.97 17.274-17.275 1.969-1.969-17.273 4.26-.486zm14.04 23.649l-2.053-.98a1.172 1.172 0 00-1.234.14l-1.783 1.418-.606-5.324 5.07-.577.607 5.323zM4.357 6.557a1.434 1.434 0 01-.329-2.85l6.154-.7.326 2.848-6.151.702zm11.132-1.272l-2.653.304-.325-2.846 3.313-.377a3.354 3.354 0 012.48.716 3.348 3.348 0 011.255 2.255l2.68 23.505.001.023.004.023 1.473 12.925a9.284 9.284 0 00-2.948-.563L16.785 6.317a1.17 1.17 0 00-1.297-1.032zm1.23 21.142l1.717 15.051a9.305 9.305 0 00-3.405 1.538l-1.427-12.51 3.116-4.079zm4.58 31.183a6.988 6.988 0 01-5.173-1.484 6.98 6.98 0 01-2.608-4.706c-.438-3.852 2.338-7.344 6.19-7.785a6.99 6.99 0 015.172 1.484 6.981 6.981 0 012.608 4.707c.44 3.851-2.336 7.343-6.19 7.784zm7.811-10.714a9.324 9.324 0 00-2.771-3.611l-.104-.079L24.7 29.764l8.06-.919.845 7.424a1.172 1.172 0 001.893.785l2.865-2.278 3.302 1.575a1.172 1.172 0 001.669-1.19l-.847-7.425 8.061-.919 1.984 17.408-23.424 2.671z" fill="#F04E23"/></svg>
